dist/svgs/dropbox.svg

<svg xmlns="http://www.w3.org/2000/svg" viewBox="0 0 512 512"><path d="M152 23l104 88-151 94L1 120zM1 287l104-82 151 93-104 87zm255 11l152-93 105 82-152 98zm257-178l-105 85-152-94 105-88zM256 316l107 89 44-30v33l-151 91-151-91v-33l47 30z"/></svg>

<?xml version="1.0" encoding="UTF-8" standalone="no"?><svg   xmlns:svg="http://www.w3.org/2000/svg"   xmlns="http://www.w3.org/2000/svg"   version="1.1"   width="512"   height="512"   viewBox="0 0 512 512">  <path     d="M152 23L256 111L105 205L1 120zM1 287L105 205L256 298L152 385zM256 298L408 205L513 287L361 385zM513 120L408 205L256 111L361 23zM256 316L363 405L407 375V408L256 499L105 408V375L152 405z"     id="dropbox" /></svg>
